X: 138
T: Wu ling hua The two clouds
%%abc-version 2.0
%%abcx-abcm2ps-target-version 5.9.1 (29 Sep 2008)
%%abc-creator hum2abc beta
%%abcx-conversion-date 2013/10/02 07:44:27
%%abc-edited-by Helmut Schaffrath
%%humdrum-veritas 4211943303
%%humdrum-veritas-data 2775013508
%%continueall 1
%%barnumbers 0
L: 1/8
M: 2/4
K: C
EE2G [I:setbarnb 1]| 
A2c A | 
A GE2 | 
G4 | 
GE2G | 
A3c | 
A GE2 | 
D4 | 
D3E | 
G2A2 | 
A2A,2 | 
C3D | 
CA,2C | 
D EA2 | 
E> DC2 | 
A,4 |]  



